src/lib/packages/icons/src/assets/filled/location-pin-search.svg

<svg width="24" height="24" viewBox="0 0 24 24" fill="none" xmlns="http://www.w3.org/2000/svg">
<path d="M13.583 10.417C13.583 11.612 12.611 12.584 11.416 12.584C10.221 12.584 9.24899 11.612 9.24899 10.417C9.24899 9.22199 10.221 8.25 11.416 8.25C12.611 8.25 13.583 9.22199 13.583 10.417ZM20.5 11C20.5 15.983 15.871 19.041 12.808 21.064L12.278 21.416C12.194 21.472 12.097 21.5 12.001 21.5C11.905 21.5 11.808 21.472 11.724 21.416L11.194 21.064C8.131 19.041 3.50201 15.983 3.50201 11C3.50201 6.313 7.31501 2.5 12.002 2.5C16.689 2.5 20.5 6.313 20.5 11ZM16.03 13.97L14.481 12.4209C14.859 11.8439 15.084 11.157 15.084 10.417C15.084 8.39599 13.439 6.75 11.417 6.75C9.39599 6.75 7.75 8.39499 7.75 10.417C7.75 12.439 9.39499 14.084 11.417 14.084C12.157 14.084 12.844 13.86 13.421 13.481L14.97 15.03C15.116 15.176 15.308 15.25 15.5 15.25C15.692 15.25 15.884 15.177 16.03 15.03C16.323 14.737 16.323 14.263 16.03 13.97Z" fill="currentColor"/>
</svg>

<svg xmlns="http://www.w3.org/2000/svg" width="24" height="24" fill="none"><path fill="currentColor" d="M13.583 10.417a2.17 2.17 0 0 1-2.167 2.167 2.17 2.17 0 0 1-2.167-2.167 2.17 2.17 0 0 1 2.167-2.167 2.17 2.17 0 0 1 2.167 2.167ZM20.5 11c0 4.983-4.629 8.041-7.692 10.064l-.53.352a.5.5 0 0 1-.554 0l-.53-.352C8.131 19.041 3.502 15.983 3.502 11c0-4.687 3.813-8.5 8.5-8.5 4.687 0 8.498 3.813 8.498 8.5Zm-4.47 2.97-1.549-1.55a3.645 3.645 0 0 0 .603-2.003 3.672 3.672 0 0 0-3.667-3.667 3.672 3.672 0 0 0-3.667 3.667 3.671 3.671 0 0 0 3.667 3.667c.74 0 1.427-.224 2.004-.603l1.549 1.549a.748.748 0 0 0 1.06 0 .749.749 0 0 0 0-1.06Z"/></svg>
